X:1
T:Brentwood, 76.76.77.76
T:Brentwood, 76.76.77.76
T:William Smallwood, 1889
T:Public Domain Courtesy of the Cyber Hymnal™
C:William Smallwood, 1889
Z:Public Domain
Z:Courtesy of the Cyber Hymnal™
%%score ( 1 2 ) ( 3 4 )
L:1/8
Q:1/4=110
M:4/4
K:A
V:1 treble 
V:2 treble 
V:3 bass 
V:4 bass 
V:1
 [CE]2 [CE]2 (FG) [EA]2 | [FB]2 [EB]2 [Ec]2 [Ec]2 | [Ee]2 [CA]2 [FB]2 B2 | [CA]8 | %4
 [EB]2 [EG]2 [Ec]2 [EB]2 | [^DA]2 [EG]2 [DF]2 [DB]2 | E2 [EG]2 [EF]2 [^DF]2 | E8 | %8
 [CF]2 [CF]2 [DF]2 [FB]2 | [EG]2 G2 [CA]4 | [Ec]2 [EB]2 [Dd]2 [Ec]2 | [EA]2 [FB]2 [EG]4 | %12
 E2 E2 (FG) [CA]2 | [DB]2 B2 [Cc]2 [Ec]2 | [Ee]2 [CA]2 [FB]2 B2 | [CA]8 |] %16
V:2
 x4 D2 x2 | x8 | x6 (ED) | x8 | x8 | x8 | E2 x6 | E8 | x8 | x2 (ED) x4 | x8 | x8 | E2 E2 D2 x2 | %13
 x2 (ED) x4 | x6 (ED) | x8 |] %16
V:3
 [A,,A,]2 [A,,A,]2 [D,A,]2 [C,A,]2 | [D,A,]2 [E,G,]2 [A,,A,]2 A,2 | %2
 [C,G,]2 [F,A,]2 [D,A,]2 [E,G,]2 | [A,,A,]8 | [E,G,]2 [E,B,]2 A,2 [G,B,]2 | %5
 [F,B,]2 [E,B,]2 [B,,B,]2 [B,,A,]2 | [C,G,]2 [G,,B,]2 [A,,C]2 (B,A,) | [E,G,]8 | %8
 [E,A,]2 [E,^A,]2 [D,B,]2 [B,,D]2 | [E,B,]2 [E,B,]2 [A,,A,]4 | A,2 [G,B,]2 [F,A,]2 A,2 | %11
 [C,A,]2 [D,D]2 [E,B,]4 | [A,C]2 [C,A,]2 [D,A,]2 [F,A,]2 | [B,,A,]2 [E,G,]2 [A,,A,]2 A,2 | %14
 [C,G,]2 [F,A,]2 [D,A,]2 [E,G,]2 | [A,,A,]8 |] %16
V:4
 x8 | x6 A,2 | x8 | x8 | x4 A,2 x2 | x8 | x6 B,,2 | x8 | x8 | x8 | A,2 x2 A,2 x2 | x8 | x8 | %13
 x6 A,2 | x8 | x8 |] %16

